picto/tracks-51-de-small.svg

<svg class="color-immutable" width="24" height="24" viewBox="0 0 24 24" fill="none" xmlns="http://www.w3.org/2000/svg"><path d="M0 22.5V1.5C0 0.675 0.675 0 1.5 0H22.5C23.325 0 24 0.675 24 1.5V22.5C24 23.325 23.325 24 22.5 24H1.5C0.675 24 0 23.325 0 22.5Z" fill="#2D327D"/><path d="M10.712 9.758V11.758H6.18199L5.69799 14.288C6.24099 13.714 6.93599 13.427 7.78199 13.427C8.61299 13.427 9.33499 13.65 9.95099 14.096C10.864 14.768 11.32 15.788 11.32 17.157C11.32 18.5 10.833 19.564 9.85899 20.349C9.09999 20.964 8.19299 21.272 7.13699 21.272C5.94799 21.272 4.99099 20.953 4.26799 20.315C3.54499 19.677 3.16299 18.814 3.12199 17.727H5.32899C5.36499 18.122 5.49299 18.458 5.71399 18.734C6.05699 19.17 6.53399 19.388 7.14399 19.388C7.73399 19.388 8.19999 19.175 8.54399 18.75C8.87699 18.335 9.04399 17.83 9.04399 17.235C9.04399 16.589 8.86999 16.073 8.52099 15.685C8.17199 15.298 7.70799 15.104 7.12899 15.104C6.42099 15.104 5.86999 15.422 5.47599 16.058L3.46899 16.027L4.53799 9.759H10.712V9.758Z" fill="white"/><path d="M18.505 9.758V21.001H16.26V13.641H15.46H14.66H13.883H13.614V12.011C14.163 11.996 14.61 11.939 14.956 11.842C15.302 11.745 15.619 11.586 15.906 11.365C16.321 11.047 16.601 10.511 16.744 9.758H18.505Z" fill="white"/><path d="M5.09599 4.037V5.249H4.78199L4.73299 4.992C4.56599 5.199 4.34199 5.303 4.05999 5.303C3.71599 5.303 3.44499 5.176 3.24599 4.922C3.08199 4.709 2.99899 4.447 2.99899 4.135C2.99899 3.781 3.10699 3.492 3.32199 3.266C3.52399 3.053 3.78499 2.946 4.10499 2.946C4.39999 2.946 4.64099 3.041 4.82599 3.232C4.96499 3.376 5.04399 3.545 5.06499 3.74H4.58899C4.56499 3.619 4.50999 3.524 4.42399 3.457C4.33899 3.389 4.22999 3.355 4.09899 3.355C3.89999 3.355 3.74599 3.432 3.63799 3.586C3.54199 3.72 3.49399 3.902 3.49399 4.13C3.49399 4.354 3.53899 4.531 3.62799 4.662C3.73799 4.824 3.89999 4.904 4.11399 4.904C4.26899 4.904 4.39599 4.857 4.49499 4.764C4.59399 4.671 4.64599 4.548 4.65099 4.396H4.15099V4.036H5.09599V4.037Z" fill="white"/><path d="M5.90299 3V5.249H5.45699V3H5.90299Z" fill="white"/><path d="M7.77499 4.726C7.75099 4.82 7.70899 4.909 7.64699 4.992C7.49999 5.194 7.28699 5.295 7.00999 5.295C6.75999 5.295 6.55899 5.216 6.40899 5.058C6.33499 4.981 6.27899 4.888 6.23999 4.78C6.19799 4.664 6.17699 4.543 6.17699 4.417C6.17699 4.173 6.24699 3.968 6.38799 3.802C6.54499 3.616 6.74799 3.524 6.99699 3.524C7.19799 3.524 7.36899 3.586 7.51099 3.71C7.61299 3.799 7.68599 3.909 7.73199 4.04C7.77799 4.171 7.80099 4.335 7.80099 4.533H6.63099C6.63499 4.615 6.64799 4.683 6.66899 4.738C6.72899 4.885 6.84399 4.958 7.01399 4.958C7.09699 4.958 7.16499 4.94 7.21699 4.903C7.26899 4.867 7.31199 4.808 7.34599 4.727H7.77499V4.726ZM7.34599 4.232C7.33799 4.151 7.31899 4.084 7.28999 4.031C7.26199 3.978 7.22099 3.937 7.16799 3.906C7.11499 3.875 7.05799 3.86 6.99499 3.86C6.89599 3.86 6.81399 3.893 6.74899 3.96C6.68399 4.026 6.64599 4.117 6.63399 4.232H7.34599Z" fill="white"/><path d="M8.52399 3V3.401H8.07799V3H8.52399ZM8.52399 3.572V5.249H8.07799V3.572H8.52399Z" fill="white"/><path d="M10.248 4.06H9.82999C9.82199 4.002 9.80599 3.959 9.78199 3.929C9.73599 3.87 9.64999 3.84 9.52499 3.84C9.44599 3.84 9.38499 3.854 9.34199 3.883C9.29899 3.912 9.27799 3.952 9.27799 4.004C9.27799 4.059 9.30199 4.1 9.34999 4.126C9.39799 4.152 9.50699 4.182 9.67699 4.217C9.89299 4.261 10.049 4.316 10.145 4.382C10.258 4.459 10.314 4.576 10.314 4.733C10.314 4.912 10.244 5.051 10.105 5.15C9.96599 5.246 9.78399 5.295 9.55699 5.295C9.27599 5.295 9.06999 5.226 8.93899 5.087C8.85099 4.993 8.80199 4.864 8.79199 4.701H9.21999C9.22799 4.777 9.24799 4.834 9.27799 4.873C9.33499 4.943 9.42999 4.978 9.56299 4.978C9.65499 4.978 9.72899 4.959 9.78299 4.922C9.83599 4.884 9.86399 4.834 9.86399 4.77C9.86399 4.713 9.84099 4.67 9.79399 4.642C9.74699 4.614 9.64899 4.582 9.49799 4.547C9.35199 4.513 9.24899 4.487 9.18899 4.468C9.12799 4.449 9.07399 4.426 9.02499 4.4C8.96299 4.364 8.91399 4.314 8.87899 4.249C8.84399 4.184 8.82699 4.113 8.82699 4.034C8.82699 3.86 8.89899 3.727 9.04399 3.636C9.16199 3.56 9.32599 3.523 9.53599 3.523C9.81399 3.523 10.013 3.594 10.134 3.735C10.2 3.812 10.238 3.92 10.248 4.06Z" fill="white"/></svg>

<svg class="color-immutable" width="24" height="24" viewBox="0 0 24 24" fill="none" xmlns="http://www.w3.org/2000/svg"><g clip-path="url(#a)"><path d="M0 22.5v-21C0 .675.675 0 1.5 0h21c.825 0 1.5.675 1.5 1.5v21c0 .825-.675 1.5-1.5 1.5h-21C.675 24 0 23.325 0 22.5Z" fill="#2D327D"/><path d="M10.712 9.758v2h-4.53l-.484 2.53c.543-.574 1.238-.861 2.084-.861.831 0 1.553.223 2.169.669.913.672 1.369 1.692 1.369 3.061 0 1.343-.487 2.407-1.461 3.192-.759.615-1.666.923-2.722.923-1.189 0-2.146-.319-2.869-.957-.723-.638-1.105-1.501-1.146-2.588h2.207c.036.395.164.731.385 1.007.343.436.82.654 1.43.654.59 0 1.056-.213 1.4-.638.333-.415.5-.92.5-1.515 0-.646-.174-1.162-.523-1.55-.349-.387-.813-.581-1.392-.581-.708 0-1.259.318-1.653.954l-2.007-.031 1.069-6.268h6.174v-.001ZM18.505 9.758v11.243H16.26v-7.36H13.614v-1.63c.549-.015.996-.072 1.342-.169a2.77 2.77 0 0 0 .95-.477c.415-.318.695-.854.838-1.607h1.761ZM5.096 4.037v1.212h-.314l-.049-.257a.82.82 0 0 1-.673.311c-.344 0-.615-.127-.814-.381a1.251 1.251 0 0 1-.247-.787c0-.354.108-.643.323-.869.202-.213.463-.32.783-.32.295 0 .536.095.721.286a.842.842 0 0 1 .239.508h-.476a.458.458 0 0 0-.165-.283.505.505 0 0 0-.325-.102.53.53 0 0 0-.461.231c-.096.134-.144.316-.144.544 0 .224.045.401.134.532.11.162.272.242.486.242a.534.534 0 0 0 .381-.14.506.506 0 0 0 .156-.368h-.5v-.36h.945v.001ZM5.903 3v2.249h-.446V3h.446ZM7.775 4.726a.752.752 0 0 1-.128.266c-.147.202-.36.303-.637.303-.25 0-.451-.079-.601-.237a.775.775 0 0 1-.169-.278 1.058 1.058 0 0 1-.063-.363c0-.244.07-.449.211-.615a.76.76 0 0 1 .609-.278.754.754 0 0 1 .735.516c.046.131.069.295.069.493h-1.17c.004.082.017.15.038.205.06.147.175.22.345.22a.343.343 0 0 0 .203-.055.39.39 0 0 0 .129-.176h.429v-.001Zm-.429-.494a.525.525 0 0 0-.056-.201.334.334 0 0 0-.295-.171.328.328 0 0 0-.246.1.44.44 0 0 0-.115.272h.712ZM8.524 3v.401h-.446V3h.446Zm0 .572v1.677h-.446V3.572h.446ZM10.248 4.06H9.83a.265.265 0 0 0-.048-.131c-.046-.059-.132-.089-.257-.089a.326.326 0 0 0-.183.043.137.137 0 0 0-.064.121.13.13 0 0 0 .072.122c.048.026.157.056.327.091.216.044.372.099.468.165.113.077.169.194.169.351 0 .179-.07.318-.209.417-.139.096-.321.145-.548.145-.281 0-.487-.069-.618-.208a.6.6 0 0 1-.147-.386h.428a.338.338 0 0 0 .058.172c.057.07.152.105.285.105a.385.385 0 0 0 .22-.056.179.179 0 0 0 .081-.152c0-.057-.023-.1-.07-.128a1.211 1.211 0 0 0-.296-.095 4.8 4.8 0 0 1-.309-.079.95.95 0 0 1-.164-.068.379.379 0 0 1-.146-.151.444.444 0 0 1-.052-.215c0-.174.072-.307.217-.398.118-.076.282-.113.492-.113.278 0 .477.071.598.212a.546.546 0 0 1 .114.325Z" fill="#fff"/></g><defs><clipPath id="a"><path fill="#fff" d="M0 0h24v24H0z"/></clipPath></defs></svg>
